src/actions/24/kstars_hgrid.svg

<svg xmlns="http://www.w3.org/2000/svg" viewBox="0 0 24 24">
  <defs id="defs3051">
    <style type="text/css" id="current-color-scheme">
      .ColorScheme-Text {
        color:#2e3440;
      }
      </style>
  </defs><g transform="translate(1,1)">
 <path 
     style="fill:currentColor;fill-opacity:1;stroke:none" 
     d="M 7.0292969 3 L 6.3261719 4.8085938 C 5.1833461 4.464661 4.0671267 4.0048523 3 3.4238281 L 3 4.8125 C 3.9327177 5.2774969 4.8919014 5.6700934 5.875 5.9707031 L 4.3808594 9.8164062 C 3.9115799 9.6023656 3.4530817 9.357457 3 9.0996094 L 3 10.507812 C 3.3087318 10.666896 3.6167933 10.828833 3.9316406 10.970703 L 3 13.369141 L 3 16.787109 L 3.0546875 16.646484 C 5.3614556 17.771916 7.8503816 18.391049 10.361328 18.513672 L 10.363281 19 L 11.599609 19 L 11.599609 18.535156 C 14.129441 18.492831 16.651088 17.948264 19 16.890625 L 19 13.1875 L 18.308594 11.40625 C 18.542951 11.317482 18.768474 11.201572 19 11.103516 L 19 9.7578125 C 18.622576 9.9307686 18.245536 10.103756 17.859375 10.25 L 16.263672 6.1425781 C 17.194277 5.892995 18.109273 5.5703486 19 5.1777344 L 19 3.8046875 C 17.969815 4.2998874 16.904976 4.698391 15.814453 4.9824219 L 15.042969 3 L 13.705078 3 L 14.583984 5.2558594 C 13.590083 5.4395533 12.583694 5.5360425 11.576172 5.546875 L 11.570312 3 L 10.322266 3 L 10.330078 5.5175781 C 9.3931695 5.461217 8.4588807 5.3351463 7.5390625 5.1289062 L 8.3671875 3 L 7.0292969 3 z M 7.0839844 6.2949219 C 8.1534529 6.5452015 9.2404221 6.6951917 10.332031 6.7558594 L 10.34375 11.341797 C 8.70767 11.219971 7.0855765 10.87057 5.5292969 10.291016 L 7.0839844 6.2949219 z M 15.041016 6.4296875 L 16.683594 10.648438 C 15.022883 11.145328 13.305224 11.397074 11.585938 11.390625 L 11.578125 6.7851562 C 12.739095 6.773051 13.897985 6.6556666 15.041016 6.4296875 z M 5.0800781 11.445312 C 6.7821389 12.079481 8.5571249 12.456795 10.347656 12.580078 L 10.359375 17.275391 C 8.0026295 17.150863 5.670575 16.550685 3.5097656 15.478516 L 5.0800781 11.445312 z M 17.134766 11.804688 L 18.646484 15.683594 C 16.41318 16.718098 14.009489 17.25674 11.595703 17.298828 L 11.587891 12.626953 C 13.459336 12.632582 15.329492 12.35472 17.134766 11.804688 z "
     class="ColorScheme-Text"
     />
</g></svg>

<svg viewBox="0 0 24 24" xmlns="http://www.w3.org/2000/svg">
 <defs>
  <style type="text/css">.ColorScheme-Text {
        color:#2e3440;
      }</style>
 </defs>
 <g transform="translate(1,1)">
  <path class="ColorScheme-Text" d="m7.0293 3-0.70312 1.8086c-1.1428-0.34393-2.259-0.80374-3.3262-1.3848v1.3887c0.93272 0.465 1.8919 0.85759 2.875 1.1582l-1.4941 3.8457c-0.46928-0.21404-0.92778-0.45895-1.3809-0.7168v1.4082c0.30873 0.15908 0.61679 0.32102 0.93164 0.46289l-0.93164 2.3984v3.418l0.054688-0.14062c2.3068 1.1254 4.7957 1.7446 7.3066 1.8672l0.001953 0.48633h1.2363v-0.46484c2.5298-0.042325 5.0515-0.58689 7.4004-1.6445v-3.7031l-0.69141-1.7812c0.23436-0.088768 0.45988-0.20468 0.69141-0.30273v-1.3457c-0.37742 0.17296-0.75446 0.34594-1.1406 0.49219l-1.5957-4.1074c0.9306-0.24958 1.8456-0.57223 2.7363-0.96484v-1.373c-1.0302 0.4952-2.095 0.8937-3.1855 1.1777l-0.77148-1.9824h-1.3379l0.87891 2.2559c-0.9939 0.18369-2.0003 0.28018-3.0078 0.29102l-0.00586-2.5469h-1.248l0.007812 2.5176c-0.93691-0.056361-1.8712-0.18243-2.791-0.38867l0.82812-2.1289h-1.3379zm0.054688 3.2949c1.0695 0.25028 2.1564 0.40027 3.248 0.46094l0.011719 4.5859c-1.6361-0.12183-3.2582-0.47123-4.8145-1.0508l1.5547-3.9961zm7.957 0.13477 1.6426 4.2188c-1.6607 0.49689-3.3784 0.74864-5.0977 0.74219l-0.007813-4.6055c1.161-0.012105 2.3199-0.12949 3.4629-0.35547zm-9.9609 5.0156c1.7021 0.63417 3.477 1.0115 5.2676 1.1348l0.011719 4.6953c-2.3567-0.12453-4.6888-0.72471-6.8496-1.7969l1.5703-4.0332zm12.055 0.35938 1.5117 3.8789c-2.2333 1.0345-4.637 1.5731-7.0508 1.6152l-0.007812-4.6719c1.8714 0.005629 3.7416-0.27223 5.5469-0.82226z" fill="currentColor"/>
 </g>
</svg>
